plasma/desktoptheme/Materia/icons/krusader_root.svg

<svg xmlns="http://www.w3.org/2000/svg" width="32" height="32" version="1">
 <g id="22-22-krusader_root" transform="translate(32,10)">
  <rect style="opacity:0.001" width="22" height="22" x="0" y="0"/>
  <path style="fill:#f44336" d="M 2,7 V 18.111328 C 2,18.604128 2.4014531,19 2.9003906,19 H 11 V 14.95093 L 9.5859375,15.980227 C 9.360073,16.160743 9.0178606,16.006986 9.0175781,15.724367 L 9,9.3337424 C 8.9994429,9.1456248 9.1601408,8.9949188 9.3554688,8.999758 9.4377658,9.001648 9.5167124,9.030966 9.578125,9.083742 L 11,10.195071 V 7 Z"/>
  <path style="opacity:0.35;fill:#f44336" d="m 11,7 v 3.195071 l 3.882812,3.035156 c 0.220213,0.188959 0.110367,0.5379 -0.18164,0.578125 l -2.056641,0.285156 0.964844,1.640625 c 0.215456,0.366673 0.08802,0.833225 -0.285156,1.044922 l -0.207031,0.117187 c -0.373182,0.211699 -0.847045,0.08737 -1.0625,-0.279296 L 11.052734,14.911867 11,14.95093 V 19 h 8.101562 C 19.600162,19 20,18.604217 20,18.111328 V 7 Z"/>
  <path style="fill:#f44336" d="M 2.9,3 C 2.40104,3 2,3.3962222 2,3.8886666 V 6 H 20 V 3.8886666 C 20,3.3962222 19.59905,3 19.1,3 Z"/>
 </g>
 <g id="krusader_root">
  <rect style="opacity:0.001" width="32" height="32" x="0" y="0"/>
  <path style="opacity:0.2" d="M 2,7.9 V 27.611111 C 2,28.381111 2.623875,29 3.4,29 H 28.6007 C 29.3763,29 30,28.38125 30,27.611111 V 7.9 Z"/>
  <path style="fill:#db4c4c" d="M 2,6.9 V 26.611111 C 2,27.381111 2.623875,28 3.4,28 H 28.6007 C 29.3763,28 30,27.38125 30,26.611111 V 6.9 Z"/>
  <path style="opacity:0.2;fill:#ffffff" d="M 16,6.9 V 28 H 28.601367 C 29.376967,28 30,27.38125 30,26.611111 V 6.9 Z"/>
  <path style="fill:#d2bebe" d="m 3.4,3.0000001 c -0.77616,0 -1.4,0.6190972 -1.4,1.3885416 V 7 H 30 V 4.3885417 C 30,3.6190973 29.3763,3.0000001 28.6,3.0000001 Z"/>
  <path style="opacity:0.1" d="m 12.572411,12.000184 c 0.132437,0.0031 0.259428,0.05187 0.358258,0.137637 l 8.537564,6.735175 c 0.354379,0.307059 0.177654,0.876712 -0.292262,0.942077 l -3.310512,0.46369 1.55155,2.665883 c 0.346727,0.595843 0.141279,1.353067 -0.45927,1.697076 l -0.332667,0.191089 c -0.600547,0.344011 -1.363749,0.140172 -1.710476,-0.455672 L 15.303785,21.608364 12.94279,23.50722 c -0.363475,0.293338 -0.914044,0.04235 -0.914498,-0.416921 L 12.000002,12.54405 c -8.97e-4,-0.30569 0.258072,-0.55173 0.572406,-0.543866 z"/>
  <path style="fill:#583030" d="m 12.572411,11.000184 c 0.132437,0.0031 0.259428,0.05187 0.358258,0.137637 l 8.537564,6.735175 c 0.354379,0.307059 0.177654,0.876712 -0.292262,0.942077 l -3.310512,0.46369 1.55155,2.665883 c 0.346727,0.595843 0.141279,1.353067 -0.45927,1.697076 l -0.332667,0.191089 c -0.600547,0.344011 -1.363749,0.140172 -1.710476,-0.455672 L 15.303785,20.608364 12.94279,22.50722 c -0.363475,0.293338 -0.914044,0.04235 -0.914498,-0.416921 L 12.000002,11.54405 c -8.97e-4,-0.30569 0.258072,-0.55173 0.572406,-0.543866 z"/>
  <rect style="opacity:0.2" width="28" height="1" x="2" y="7"/>
  <path style="opacity:0.2;fill:#ffffff" d="M 3.4003906,3 C 2.6242306,3 2,3.6192275 2,4.3886719 v 1 C 2,4.6192275 2.6242306,4 3.4003906,4 H 28.599609 C 29.375909,4 30,4.6192275 30,5.3886719 v -1 C 30,3.6192275 29.375909,3 28.599609,3 Z"/>
 </g>
</svg>

<?xml version="1.0" encoding="UTF-8"?>
<svg width="32" height="32" version="1" xmlns="http://www.w3.org/2000/svg">
 <g id="22-22-krusader_root" transform="translate(32,10)">
  <rect width="22" height="22" opacity=".001"/>
  <path d="m2 7v11.111c0 0.4928 0.40145 0.88867 0.90039 0.88867h8.0996v-4.0491l-1.4141 1.0293c-0.22586 0.18052-0.56808 0.026759-0.56836-0.25586l-0.017578-6.3906c-5.571e-4 -0.18812 0.16014-0.33882 0.35547-0.33398 0.082297 0.00189 0.16124 0.031208 0.22266 0.083984l1.4219 1.1113v-3.1951z" fill="#f44336"/>
  <path d="m11 7v3.1951l3.8828 3.0352c0.22021 0.18896 0.11037 0.5379-0.18164 0.57812l-2.0566 0.28516 0.96484 1.6406c0.21546 0.36667 0.08802 0.83322-0.28516 1.0449l-0.20703 0.11719c-0.37318 0.2117-0.84704 0.08737-1.0625-0.2793l-1.002-1.7051-0.052734 0.039063v4.0491h8.1016c0.4986 0 0.89844-0.39578 0.89844-0.88867v-11.111z" fill="#f44336" opacity=".35"/>
  <path d="m2.9 3c-0.49896 0-0.9 0.39622-0.9 0.88867v2.1113h18v-2.1113c0-0.49244-0.40095-0.88867-0.9-0.88867z" fill="#f44336"/>
 </g>
 <g id="krusader_root">
  <rect width="32" height="32" opacity=".001"/>
  <path d="m2 7.9v19.711c0 0.77 0.62388 1.3889 1.4 1.3889h25.201c0.7756 0 1.3993-0.61875 1.3993-1.3889v-19.711z" opacity=".2"/>
  <path d="m2 6.9v19.711c0 0.77 0.62388 1.3889 1.4 1.3889h25.201c0.7756 0 1.3993-0.61875 1.3993-1.3889v-19.711z" fill="#db4c4c"/>
  <path d="m16 6.9v21.1h12.601c0.7756 0 1.3986-0.61875 1.3986-1.3889v-19.711z" fill="#fff" opacity=".2"/>
  <path d="m3.4 3c-0.77616 0-1.4 0.6191-1.4 1.3885v2.6115h28v-2.6115c0-0.76944-0.6237-1.3885-1.4-1.3885z" fill="#d2bebe"/>
  <path d="m12.572 12c0.13244 0.0031 0.25943 0.05187 0.35826 0.13764l8.5376 6.7352c0.35438 0.30706 0.17765 0.87671-0.29226 0.94208l-3.3105 0.46369 1.5516 2.6659c0.34673 0.59584 0.14128 1.3531-0.45927 1.6971l-0.33267 0.19109c-0.60055 0.34401-1.3637 0.14017-1.7105-0.45567l-1.6108-2.7688-2.361 1.8989c-0.36348 0.29334-0.91404 0.04235-0.9145-0.41692l-0.02829-10.546c-8.97e-4 -0.30569 0.25807-0.55173 0.57241-0.54387z" opacity=".1"/>
  <path d="m12.572 11c0.13244 0.0031 0.25943 0.05187 0.35826 0.13764l8.5376 6.7352c0.35438 0.30706 0.17765 0.87671-0.29226 0.94208l-3.3105 0.46369 1.5516 2.6659c0.34673 0.59584 0.14128 1.3531-0.45927 1.6971l-0.33267 0.19109c-0.60055 0.34401-1.3637 0.14017-1.7105-0.45567l-1.6108-2.7688-2.361 1.8989c-0.36348 0.29334-0.91404 0.04235-0.9145-0.41692l-0.02829-10.546c-8.97e-4 -0.30569 0.25807-0.55173 0.57241-0.54387z" fill="#583030"/>
  <rect x="2" y="7" width="28" height="1" opacity=".2"/>
  <path d="m3.4004 3c-0.77616 0-1.4004 0.61923-1.4004 1.3887v1c0-0.76944 0.62423-1.3887 1.4004-1.3887h25.199c0.7763 0 1.4004 0.61923 1.4004 1.3887v-1c0-0.76944-0.62409-1.3887-1.4004-1.3887z" fill="#fff" opacity=".2"/>
 </g>
</svg>
